X:1
T:Title
%%score { ( 1 3 ) | ( 2 4 ) }
L:1/8
M:4/4
K:A
V:1 treble nm="Grand Piano"
V:3 treble 
V:2 bass 
V:4 bass 
V:1
 z4 z2[Q:1/4=100] [CE]>[B,D] | [A,C]>[CE] [EA]>B c2 [Fd]>[Ec] | [DB]4 [DF]2 [FB]>[FA] | %3
 G>G GG Gd c>B | [Ec]6 [CE]>[B,D] | [A,C]>[CE] [EA]>B c2 [Fd]>[Ec] | [DB]4 [DF]2 [FB]>[FA] | %7
 G>G GG Gd c>B |[M:3/4] [CA]6 |[M:1/4] c>d |[M:4/4] e6 z2 | d4 B2 B>c | d6 z2 | [Ec]6 [CE]>[B,D] | %14
 [A,C]>[CE] [EA]B c2 [Fd]>[Ec] | [DB]4 [DF]2 [FB]>[FA] | G>G GG Gd c>B | %17
[M:3/4] A6[Q:1/4=99][Q:1/4=97][Q:1/4=96][Q:1/4=94][Q:1/4=93][Q:1/4=91][Q:1/4=90][Q:1/4=88][Q:1/4=87][Q:1/4=85][Q:1/4=84][Q:1/4=82][Q:1/4=81][Q:1/4=79][Q:1/4=78][Q:1/4=76] |] %18
V:2
 z4 z2 [A,,A,]>[A,,E,] | [A,,E,]>[A,,A,] [C,A,]>[E,G,E] [A,E]2 [A,,A,]>[A,,A,] | %2
 [D,F,]4 [D,B,]2 [^D,B,]>[D,B,] | [E,B,E]>[E,B,E] [E,B,E][E,B,E] [E,B,E][E,B,E] [E,A,E]>[E,G,E] | %4
 [A,,A,]6 [A,,A,]>[A,,E,] | [A,,E,]>[A,,A,] [C,A,]>[E,G,E] [A,E]2 [A,,A,]>[A,,A,] | %6
 [D,F,]4 [D,B,]2 [^D,B,]>[D,B,] | [E,B,E]>[E,B,E] [E,B,E][E,B,E] [E,B,E][E,B,E] [E,A,E]>[E,G,D] | %8
[M:3/4] [A,,A,]6 |[M:1/4] z2 |[M:4/4] z2 [A,C]>[A,C] [A,C][A,E] [A,B,E]>[A,CE] | %11
 [E,B,E]4 [E,G,E]2 z2 | z2 [E,B,]>[E,B,] [E,B,][E,D] [E,C]>[E,B,] | [A,,A,]6 [A,,A,]>[A,,E,] | %14
 [A,,E,]>[A,,A,] [C,A,][E,G,E] [A,E]2 [A,,A,]>[A,,A,] | [D,F,]4 [D,B,]2 [^D,B,]>[D,B,] | %16
 [E,B,E]>[E,B,E] [E,B,E][E,B,E] [E,B,E][E,B,E] [E,A,E]>[E,G,D] |[M:3/4] z =G, F,^E, =E,2 |] %18
V:3
 x8 | x8 | x8 | x8 | x8 | x8 | x8 | x8 |[M:3/4] x6 |[M:1/4] x2 |[M:4/4] z2 A>A Ac d>e | x8 | %12
 z2 G>G G[Gf] [Ae]>[Ed] | x8 | x8 | x8 | x8 |[M:3/4] [A,C]E ^D=D C2 |] %18
V:4
 x8 | x8 | x8 | x8 | x8 | x8 | x8 | x8 |[M:3/4] x6 |[M:1/4] x2 |[M:4/4] x8 | x8 | x8 | x8 | x8 | %15
 x8 | x8 |[M:3/4] A,,6 |] %18

